icon/checkmark.svg

<?xml version="1.0" encoding="utf-8"?>
<!-- Generator: Adobe Illustrator 26.3.1, SVG Export Plug-In . SVG Version: 6.00 Build 0)  -->
<svg version="1.1" id="图层_1" xmlns="http://www.w3.org/2000/svg" xmlns:xlink="http://www.w3.org/1999/xlink" x="0px" y="0px"
	 viewBox="0 0 7 7" style="enable-background:new 0 0 7 7;" xml:space="preserve">
<style type="text/css">
	.st0{fill-rule:evenodd;clip-rule:evenodd;fill:#D9908E;}
</style>
<path class="st0" d="M7,0H6v1H5v1H4v1H3v1H2V3H1V2H0v3h1v1h1v1h1V6h1V5h1V4h1V3h1V0z"/>
</svg>

<svg width="7" height="7" viewBox="0 0 7 7" fill="none" xmlns="http://www.w3.org/2000/svg">
<path fill-rule="evenodd" clip-rule="evenodd" d="M7 0H6V1H5V2H4V3H3V4H2V3H1V2H0V5H1V6H2V7H3V6H4V5H5V4H6V3H7V0Z" fill="black"/>
</svg>
